;FLAVOR:Marlin
;TIME:6986
;Filament used: 5.72788m
;Layer height: 0.32
;MINX:44.001
;MINY:49
;MINZ:0.2
;MAXX:190.999
;MAXY:185.988
;MAXZ:7.88
;Generated with Cura_SteamEngine 4.6.1
M140 S50
M105
M190 S50
M104 S200
M105
M109 S200
M82 ;absolute extrusion mode
; Ender 3 Custom Start G-code
G92 E0 ; Reset Extruder
G28 ; Home all axes
G1 Z2.0 F3000 ; Move Z Axis up little to prevent scratching of Heat Bed
G1 X0.1 Y20 Z0.3 F5000.0 ; Move to start position
G1 X0.1 Y200.0 Z0.3 F1500.0 E15 ; Draw the first line
G1 X0.4 Y200.0 Z0.3 F5000.0 ; Move to side a little
G1 X0.4 Y20 Z0.3 F1500.0 E30 ; Draw the second line
G92 E0 ; Reset Extruder
G1 Z2.0 F3000 ; Move Z Axis up little to prevent scratching of Heat Bed
G1 X5 Y20 Z0.3 F5000.0 ; Move over to prevent blob squish
G92 E0
G92 E0
G1 F2700 E-5
;LAYER_COUNT:25
;LAYER:0
M107
G0 F6000 X152.275 Y49.811 Z0.2
;TYPE:SKIRT
G1 F2700 E0
G1 F1200 X153.177 Y49.864 E0.03005
G1 X153.666 Y49.926 E0.04645
G1 X154.014 Y49.979 E0.05815
G1 X154.9 Y50.155 E0.0882
G1 X156.084 Y50.522 E0.12943
G1 X156.301 Y50.604 E0.13714
G1 X157.13 Y50.96 E0.16715
G1 X157.913 Y51.381 E0.19672
G1 X158.651 Y51.825 E0.22536
G1 X184.421 Y68.236 E1.24152
G1 X185.379 Y68.877 E1.27986
G1 X186.096 Y69.426 E1.3099
G1 X186.715 Y69.991 E1.33777
G1 X186.911 Y70.185 E1.34694
G1 X187.525 Y70.848 E1.377
G1 X188.077 Y71.562 E1.40702
G1 X188.363 Y71.992 E1.42419
G1 X188.498 Y72.206 E1.43261
G1 X188.945 Y72.99 E1.46262
G1 X189.437 Y74.107 E1.50322
G1 X189.514 Y74.315 E1.5106
G1 X189.789 Y75.175 E1.54063
G1 X190.013 Y76.2 E1.57552
G1 X190.052 Y76.437 E1.58351
G1 X190.159 Y77.334 E1.61356
G1 X190.185 Y77.877 E1.63164
G1 X190.199 Y78.654 E1.65749
G1 X190.199 Y80.383 E1.71499
G1 X190.189 Y81.139 E1.74014
G1 X190.137 Y82.041 E1.77019
G1 X190.006 Y82.934 E1.80021
G1 X189.8 Y83.798 E1.82975
G1 X189.706 Y84.128 E1.84116
G1 X189.42 Y84.985 E1.87121
G1 X189.06 Y85.813 E1.90124
G1 X188.628 Y86.606 E1.93128
G1 X188.127 Y87.358 E1.96133
G1 X187.562 Y88.062 E1.99136
G1 X186.996 Y88.658 E2.01869
G1 X186.673 Y88.968 E2.03358
G1 X185.189 Y90.358 E2.10121
G1 X183.378 Y92.153 E2.18602
G1 X181.631 Y93.986 E2.27024
G1 X179.906 Y95.901 E2.35596
G1 X178.281 Y97.81 E2.43935
G1 X176.697 Y99.783 E2.5235
G1 X175.146 Y101.831 E2.60895
G1 X173.677 Y103.887 E2.69299
G1 X172.259 Y105.996 E2.77752
G1 X170.916 Y108.122 E2.86116
G1 X169.611 Y110.324 E2.94629
G1 X168.365 Y112.564 E3.03154
G1 X167.218 Y114.778 E3.11448
G1 X166.089 Y117.111 E3.20068
G1 X165.067 Y119.388 E3.28369
G1 X164.081 Y121.76 E3.36913
G1 X163.165 Y124.148 E3.4542
G1 X162.339 Y126.511 E3.53746
G1 X161.567 Y128.93 E3.62191
G1 X160.865 Y131.365 E3.7062
G1 X160.226 Y133.844 E3.79134
G1 X159.666 Y136.299 E3.87509
G1 X159.169 Y138.8 E3.9599
G1 X158.742 Y141.328 E4.04518
G1 X158.391 Y143.831 E4.12924
G1 X158.112 Y146.337 E4.21311
G1 X157.901 Y148.875 E4.29781
G1 X157.764 Y151.402 E4.38198
G1 X157.696 Y154.002 E4.46849
G1 X157.689 Y155.174 E4.50747
G1 X157.673 Y155.76 E4.52697
G1 X157.642 Y156.373 E4.54738
G1 X157.585 Y157.178 E4.57423
G1 X157.494 Y157.99 E4.6014
G1 X157.336 Y159.009 E4.6357
G1 X157.208 Y159.72 E4.65973
G1 X157.04 Y160.484 E4.68574
G1 X156.729 Y161.634 E4.72537
G1 X156.54 Y162.274 E4.74756
G1 X156.296 Y163.001 E4.77307
G1 X156.021 Y163.719 E4.79864
G1 X155.82 Y164.221 E4.81663
G1 X155.557 Y164.85 E4.8393
G1 X155.229 Y165.557 E4.86522
G1 X154.858 Y166.277 E4.89216
G1 X154.548 Y166.854 E4.91395
G1 X154.24 Y167.409 E4.93506
G1 X153.851 Y168.053 E4.96008
G1 X153.36 Y168.795 E4.98968
G1 X152.583 Y169.913 E5.03496
G1 X152.055 Y170.607 E5.06396
G1 X151.558 Y171.203 E5.08978
G1 X150.874 Y171.997 E5.12463
G1 X150.452 Y172.474 E5.14581
G1 X149.949 Y173.003 E5.17009
G1 X149.348 Y173.588 E5.19799
G1 X148.382 Y174.49 E5.24195
G1 X147.855 Y174.97 E5.26566
G1 X147.204 Y175.515 E5.29389
G1 X146.614 Y175.968 E5.31863
G1 X145.3 Y176.951 E5.37321
G1 X144.728 Y177.366 E5.39672
G1 X144.1 Y177.787 E5.42187
G1 X143.482 Y178.166 E5.44598
G1 X141.657 Y179.244 E5.51648
G1 X141.037 Y179.599 E5.54024
G1 X140.328 Y179.969 E5.56684
G1 X139.639 Y180.293 E5.59216
G1 X137.337 Y181.332 E5.67616
G1 X136.716 Y181.602 E5.69869
G1 X136.016 Y181.876 E5.72369
G1 X135.245 Y182.144 E5.75084
G1 X132.373 Y183.081 E5.85132
G1 X131.681 Y183.296 E5.87542
G1 X130.89 Y183.507 E5.90265
G1 X130.111 Y183.681 E5.92919
G1 X126.754 Y184.377 E6.04322
G1 X126.094 Y184.503 E6.06557
G1 X125.599 Y184.585 E6.08226
G1 X125.307 Y184.626 E6.09207
G1 X124.939 Y184.671 E6.1044
G1 X121.568 Y185.019 E6.21711
G1 X120.749 Y185.092 E6.24446
G1 X120.222 Y185.125 E6.26202
G1 X118.897 Y185.173 E6.30612
G1 X118.275 Y185.185 E6.32681
G1 X117.309 Y185.188 E6.35894
G1 X116.65 Y185.17 E6.38087
G1 X115.537 Y185.112 E6.41794
G1 X114.82 Y185.065 E6.44184
G1 X114.293 Y185.017 E6.45944
G1 X114.013 Y184.984 E6.46881
G1 X113.674 Y184.938 E6.48019
G1 X112.468 Y184.754 E6.52077
G1 X111.481 Y184.583 E6.55409
G1 X111.247 Y184.537 E6.56202
G1 X110.781 Y184.435 E6.57788
G1 X109.728 Y184.173 E6.61397
G1 X109.12 Y184.003 E6.63497
G1 X108.492 Y183.814 E6.65678
G1 X108.003 Y183.653 E6.67391
G1 X107.323 Y183.409 E6.69794
G1 X106.488 Y183.096 E6.7276
G1 X105.822 Y182.835 E6.75139
G1 X105.303 Y182.615 E6.77014
G1 X105.058 Y182.503 E6.7791
G1 X104.775 Y182.368 E6.78952
G1 X103.661 Y181.815 E6.83089
G1 X103.051 Y181.501 E6.85371
G1 X102.574 Y181.24 E6.87179
G1 X101.854 Y180.806 E6.89976
G1 X100.999 Y180.264 E6.93343
G1 X100.424 Y179.89 E6.95624
G1 X99.934 Y179.552 E6.97604
G1 X99.467 Y179.202 E6.99545
G1 X98.537 Y178.472 E7.03477
G1 X97.939 Y177.988 E7.06036
G1 X97.521 Y177.63 E7.07866
G1 X97.336 Y177.463 E7.08695
G1 X97.092 Y177.236 E7.09804
G1 X96.169 Y176.344 E7.14073
G1 X95.701 Y175.878 E7.1627
G1 X95.318 Y175.475 E7.18119
G1 X94.915 Y175.02 E7.2014
G1 X94.127 Y174.085 E7.24207
G1 X93.688 Y173.549 E7.26512
G1 X93.355 Y173.12 E7.28318
G1 X92.88 Y172.451 E7.31047
G1 X92.309 Y171.611 E7.34425
G1 X91.904 Y170.999 E7.36866
G1 X91.575 Y170.467 E7.38947
G1 X91.337 Y170.047 E7.40552
G1 X90.734 Y168.933 E7.44765
G1 X90.404 Y168.302 E7.47134
G1 X90.139 Y167.755 E7.49155
G1 X89.93 Y167.28 E7.50881
G1 X89.446 Y166.113 E7.55083
G1 X89.19 Y165.471 E7.57382
G1 X88.887 Y164.597 E7.60459
G1 X88.726 Y164.055 E7.62339
G1 X88.5 Y163.143 E7.65464
G1 X88.453 Y162.907 E7.66265
G1 X88.39 Y162.559 E7.67441
G1 X88.341 Y162.259 E7.68452
G1 X88.229 Y161.27 E7.71763
G1 X88.139 Y159.83 E7.76561
G1 X88.085 Y158.594 E7.80676
G1 X87.901 Y156.035 E7.89209
G1 X87.646 Y153.496 E7.97697
G1 X87.324 Y151.004 E8.06054
G1 X86.923 Y148.465 E8.14603
G1 X86.459 Y145.986 E8.22992
G1 X85.925 Y143.52 E8.31384
G1 X85.312 Y141.033 E8.39903
G1 X84.638 Y138.593 E8.48323
G1 X83.895 Y136.171 E8.56749
G1 X83.082 Y133.771 E8.65177
G1 X82.187 Y131.355 E8.73746
G1 X81.247 Y129.022 E8.82112
G1 X80.229 Y126.689 E8.90578
G1 X79.159 Y124.413 E8.98943
G1 X77.992 Y122.104 E9.07548
G1 X76.801 Y119.901 E9.15877
G1 X75.515 Y117.679 E9.24416
G1 X74.201 Y115.549 E9.3274
G1 X72.792 Y113.403 E9.41279
G1 X71.34 Y111.321 E9.49721
G1 X69.835 Y109.288 E9.58134
G1 X68.277 Y107.305 E9.66522
G1 X66.634 Y105.332 E9.75061
G1 X64.942 Y103.412 E9.83573
G1 X63.217 Y101.561 E9.91989
G1 X61.462 Y99.785 E10.00293
G1 X59.604 Y98.005 E10.08851
G1 X57.734 Y96.314 E10.17237
G1 X55.781 Y94.645 E10.25781
G1 X53.791 Y93.042 E10.3428
G1 X51.805 Y91.531 E10.4258
G1 X49.375 Y89.794 E10.52515
G1 X48.656 Y89.247 E10.5552
G1 X47.989 Y88.638 E10.58524
G1 X47.377 Y87.973 E10.6153
G1 X46.897 Y87.355 E10.64132
G1 X46.75 Y87.15 E10.64971
G1 X46.257 Y86.393 E10.67976
G1 X45.832 Y85.596 E10.7098
G1 X45.48 Y84.765 E10.73982
G1 X45.203 Y83.905 E10.76987
G1 X44.936 Y82.606 E10.81398
G1 X44.908 Y82.404 E10.82076
G1 X44.813 Y81.179 E10.86162
G1 X44.801 Y80.421 E10.88684
G1 X44.802 Y78.656 E10.94554
G1 X44.812 Y77.981 E10.968
G1 X44.9 Y76.784 E11.00792
G1 X44.934 Y76.529 E11.01647
G1 X45.093 Y75.64 E11.04651
G1 X45.423 Y74.492 E11.08624
G1 X45.493 Y74.293 E11.09326
G1 X45.83 Y73.456 E11.12327
G1 X46.265 Y72.607 E11.15499
G1 X46.371 Y72.422 E11.16209
G1 X46.854 Y71.659 E11.19212
G1 X47.582 Y70.734 E11.23127
G1 X47.774 Y70.517 E11.24091
G1 X48.402 Y69.868 E11.27095
G1 X49.084 Y69.277 E11.30096
G1 X49.611 Y68.884 E11.32283
G1 X49.928 Y68.665 E11.33564
G1 X50.584 Y68.231 E11.3618
G1 X76.244 Y51.893 E12.37357
G1 X76.834 Y51.529 E12.39663
G1 X77.462 Y51.172 E12.42065
G1 X77.657 Y51.07 E12.42797
G1 X78.475 Y50.687 E12.45802
G1 X79.324 Y50.378 E12.48807
G1 X80.062 Y50.176 E12.51351
G1 X80.434 Y50.089 E12.52622
G1 X81.322 Y49.922 E12.55627
G1 X82.557 Y49.823 E12.59748
G1 X83.775 Y49.801 E12.638
G1 X151.429 Y49.8 E14.88818
G1 X151.574 Y49.801 E14.893
G1 X152.275 Y49.811 E14.91632
G0 F6000 X152.281 Y49.411
G1 F1200 X153.2 Y49.464 E14.94694
G1 X153.726 Y49.531 E14.96457
G1 X154.074 Y49.584 E14.97628
G1 X154.977 Y49.762 E15.00689
G1 X156.225 Y50.147 E15.05033
G1 X156.442 Y50.229 E15.05805
G1 X157.288 Y50.592 E15.08867
G1 X158.118 Y51.037 E15.11999
G1 X158.595 Y51.321 E15.13845
G1 X158.865 Y51.488 E15.14901
G1 X184.64 Y67.901 E16.16535
G1 X185.608 Y68.549 E16.20409
G1 X186.34 Y69.108 E16.23472
G1 X186.997 Y69.706 E16.26427
G1 X187.193 Y69.9 E16.27345
G1 X187.818 Y70.576 E16.30407
G1 X188.383 Y71.303 E16.33469
G1 X188.701 Y71.778 E16.3537
G1 X188.836 Y71.992 E16.36212
G1 X189.293 Y72.792 E16.39276
G1 X189.812 Y73.968 E16.43552
G1 X189.889 Y74.176 E16.44289
G1 X190.171 Y75.052 E16.4735
G1 X190.407 Y76.135 E16.51037
G1 X190.446 Y76.372 E16.51836
G1 X190.556 Y77.286 E16.54897
G1 X190.585 Y77.869 E16.56839
G1 X190.599 Y78.653 E16.59447
G1 X190.599 Y80.388 E16.65218
G1 X190.589 Y81.144 E16.67732
G1 X190.537 Y82.063 E16.70794
G1 X190.405 Y82.975 E16.73859
G1 X190.184 Y83.908 E16.77048
G1 X190.09 Y84.238 E16.78189
G1 X189.8 Y85.112 E16.81252
G1 X189.435 Y85.957 E16.84313
G1 X188.998 Y86.767 E16.87374
G1 X188.492 Y87.536 E16.90436
G1 X187.921 Y88.259 E16.935
G1 X187.274 Y88.945 E16.96637
G1 X186.947 Y89.26 E16.98147
G1 X185.462 Y90.651 E17.04914
G1 X183.649 Y92.448 E17.13405
G1 X181.918 Y94.264 E17.21749
G1 X180.24 Y96.127 E17.30088
G1 X178.582 Y98.074 E17.38594
G1 X176.999 Y100.047 E17.47007
G1 X175.475 Y102.059 E17.55402
G1 X174.002 Y104.12 E17.63828
G1 X172.596 Y106.211 E17.72208
G1 X171.255 Y108.334 E17.8056
G1 X169.946 Y110.544 E17.89103
G1 X168.727 Y112.737 E17.97448
G1 X167.575 Y114.957 E18.05767
G1 X166.456 Y117.271 E18.14316
G1 X165.43 Y119.557 E18.2265
G1 X164.46 Y121.89 E18.31054
G1 X163.541 Y124.286 E18.39589
G1 X162.711 Y126.659 E18.4795
G1 X161.946 Y129.056 E18.56319
G1 X161.253 Y131.461 E18.64644
G1 X160.617 Y133.927 E18.73114
G1 X160.054 Y136.399 E18.81546
G1 X159.561 Y138.879 E18.89956
G1 X159.14 Y141.373 E18.98369
G1 X158.79 Y143.864 E19.06735
G1 X158.51 Y146.378 E19.15148
G1 X158.299 Y148.929 E19.23662
G1 X158.162 Y151.435 E19.3201
G1 X158.096 Y153.969 E19.40441
G1 X158.089 Y155.183 E19.44478
G1 X158.072 Y155.778 E19.46458
G1 X158.041 Y156.402 E19.48536
G1 X157.984 Y157.207 E19.5122
G1 X157.89 Y158.05 E19.54042
G1 X157.729 Y159.08 E19.57509
G1 X157.601 Y159.791 E19.59912
G1 X157.427 Y160.585 E19.62615
G1 X157.113 Y161.747 E19.66619
G1 X156.924 Y162.387 E19.68838
G1 X156.67 Y163.143 E19.71491
G1 X156.393 Y163.868 E19.74072
G1 X156.189 Y164.375 E19.7589
G1 X155.926 Y165.004 E19.78157
G1 X155.585 Y165.739 E19.80852
G1 X155.211 Y166.466 E19.83572
G1 X154.897 Y167.049 E19.85774
G1 X154.589 Y167.604 E19.87885
G1 X154.186 Y168.272 E19.9048
G1 X153.688 Y169.023 E19.93477
G1 X152.911 Y170.141 E19.98005
G1 X152.363 Y170.862 E20.01017
G1 X151.862 Y171.464 E20.03622
G1 X151.174 Y172.262 E20.07127
G1 X150.752 Y172.739 E20.09245
G1 X150.229 Y173.289 E20.11769
G1 X149.621 Y173.88 E20.1459
G1 X148.652 Y174.786 E20.19002
G1 X148.125 Y175.266 E20.21373
G1 X147.448 Y175.832 E20.24308
G1 X146.853 Y176.288 E20.26801
G1 X145.535 Y177.275 E20.32278
G1 X144.963 Y177.69 E20.34628
G1 X144.31 Y178.127 E20.37241
G1 X143.686 Y178.511 E20.39678
G1 X141.856 Y179.591 E20.46746
G1 X141.236 Y179.946 E20.49122
G1 X140.499 Y180.33 E20.51886
G1 X139.804 Y180.657 E20.54441
G1 X137.496 Y181.699 E20.62863
G1 X136.875 Y181.969 E20.65115
G1 X136.148 Y182.254 E20.67713
G1 X135.369 Y182.524 E20.70455
G1 X132.492 Y183.463 E20.80521
G1 X131.8 Y183.678 E20.82931
G1 X130.977 Y183.897 E20.85763
G1 X130.193 Y184.072 E20.88435
G1 X126.829 Y184.77 E20.99862
G1 X126.169 Y184.896 E21.02097
G1 X125.655 Y184.981 E21.0383
G1 X125.363 Y185.022 E21.0481
G1 X124.98 Y185.069 E21.06094
G1 X121.603 Y185.417 E21.17385
G1 X120.784 Y185.49 E21.2012
G1 X120.237 Y185.525 E21.21943
G1 X118.906 Y185.573 E21.26373
G1 X118.278 Y185.585 E21.28462
G1 X117.301 Y185.588 E21.31712
G1 X116.954 Y185.581 E21.32866
G1 X116.63 Y185.569 E21.33944
G1 X115.511 Y185.511 E21.37671
G1 X114.794 Y185.464 E21.40061
G1 X114.246 Y185.414 E21.41891
G1 X113.966 Y185.381 E21.42829
G1 X113.614 Y185.334 E21.4401
G1 X112.402 Y185.148 E21.48088
G1 X111.403 Y184.976 E21.5146
G1 X111.169 Y184.93 E21.52253
G1 X110.685 Y184.823 E21.53902
G1 X109.623 Y184.558 E21.57542
G1 X109.005 Y184.386 E21.59676
G1 X108.377 Y184.197 E21.61857
G1 X107.868 Y184.03 E21.63639
G1 X107.183 Y183.784 E21.6606
G1 X106.342 Y183.468 E21.69048
G1 X105.676 Y183.207 E21.71427
G1 X105.137 Y182.978 E21.73375
G1 X104.892 Y182.866 E21.74271
G1 X104.598 Y182.726 E21.75354
G1 X103.478 Y182.171 E21.79511
G1 X102.868 Y181.857 E21.81793
G1 X102.373 Y181.585 E21.83672
G1 X101.641 Y181.144 E21.86514
G1 X100.78 Y180.6 E21.89901
G1 X100.205 Y180.226 E21.92183
G1 X99.697 Y179.874 E21.94238
G1 X99.22 Y179.517 E21.9622
G1 X98.285 Y178.782 E22.00176
G1 X97.687 Y178.298 E22.02735
G1 X97.253 Y177.927 E22.04634
G1 X96.814 Y177.524 E22.06616
G1 X95.887 Y176.627 E22.10906
G1 X95.419 Y176.161 E22.13103
G1 X95.021 Y175.743 E22.15022
G1 X94.831 Y175.532 E22.15967
G1 X94.61 Y175.278 E22.17086
G1 X93.817 Y174.338 E22.21177
G1 X93.378 Y173.802 E22.23481
G1 X93.032 Y173.356 E22.25359
G1 X92.549 Y172.676 E22.28133
G1 X91.975 Y171.832 E22.31528
G1 X91.57 Y171.22 E22.33969
G1 X91.228 Y170.667 E22.36131
G1 X90.985 Y170.237 E22.37774
G1 X90.38 Y169.118 E22.42005
G1 X90.05 Y168.487 E22.44373
G1 X89.774 Y167.919 E22.46474
G1 X89.561 Y167.433 E22.48239
G1 X89.075 Y166.261 E22.52458
G1 X88.819 Y165.619 E22.54757
G1 X88.504 Y164.711 E22.57954
G1 X88.343 Y164.169 E22.59834
G1 X88.108 Y163.221 E22.63083
G1 X88.061 Y162.985 E22.63883
G1 X87.947 Y162.324 E22.66114
G1 X87.83 Y161.296 E22.69555
G1 X87.739 Y159.847 E22.74384
G1 X87.685 Y158.607 E22.78512
G1 X87.502 Y156.068 E22.86979
G1 X87.249 Y153.551 E22.95393
G1 X86.927 Y151.055 E23.03763
G1 X86.527 Y148.524 E23.12286
G1 X86.068 Y146.072 E23.20583
G1 X85.534 Y143.603 E23.28985
G1 X84.933 Y141.164 E23.3734
G1 X84.252 Y138.702 E23.45836
G1 X83.509 Y136.279 E23.54265
G1 X82.704 Y133.902 E23.62612
G1 X81.817 Y131.507 E23.71107
G1 X80.881 Y129.182 E23.79443
G1 X79.864 Y126.854 E23.87892
G1 X78.791 Y124.571 E23.96283
G1 X77.641 Y122.296 E24.04761
G1 X76.446 Y120.086 E24.13117
G1 X75.187 Y117.91 E24.21479
G1 X73.843 Y115.732 E24.29991
G1 X72.473 Y113.646 E24.38292
G1 X71.023 Y111.566 E24.46725
G1 X69.514 Y109.528 E24.55159
G1 X67.954 Y107.541 E24.63561
G1 X66.328 Y105.59 E24.72009
G1 X64.65 Y103.685 E24.80452
G1 X62.939 Y101.849 E24.88799
G1 X61.184 Y100.072 E24.97106
G1 X59.305 Y98.274 E25.05756
G1 X57.489 Y96.632 E25.13899
G1 X55.516 Y94.945 E25.22533
G1 X53.566 Y93.373 E25.30864
G1 X51.575 Y91.859 E25.39183
G1 X49.179 Y90.144 E25.48983
G1 X48.414 Y89.565 E25.52174
G1 X47.732 Y88.947 E25.55235
G1 X47.106 Y88.272 E25.58297
G1 X46.572 Y87.588 E25.61183
G1 X46.425 Y87.383 E25.62022
G1 X45.921 Y86.612 E25.65086
G1 X45.487 Y85.801 E25.68145
G1 X45.124 Y84.954 E25.7121
G1 X44.836 Y84.08 E25.74271
G1 X44.625 Y83.184 E25.77333
G1 X44.539 Y82.661 E25.79095
G1 X44.511 Y82.459 E25.79774
G1 X44.413 Y81.186 E25.8402
G1 X44.401 Y80.421 E25.86565
G1 X44.402 Y78.65 E25.92455
G1 X44.412 Y77.975 E25.94701
G1 X44.504 Y76.731 E25.9885
G1 X44.538 Y76.476 E25.99705
G1 X44.699 Y75.57 E26.02766
G1 X45.046 Y74.36 E26.06952
G1 X45.116 Y74.161 E26.07654
G1 X45.459 Y73.306 E26.10718
G1 X45.918 Y72.408 E26.14072
G1 X46.024 Y72.223 E26.14782
G1 X46.516 Y71.445 E26.17843
G1 X47.282 Y70.469 E26.2197
