;FLAVOR:Marlin
;TIME:4265
;Filament used: 2.18375m
;Layer height: 0.2
;MINX:94.913
;MINY:53.5
;MINZ:0.2
;MAXX:139.999
;MAXY:181.5
;MAXZ:22.8
;Generated with Cura_SteamEngine 4.6.1
M140 S50
M105
M190 S50
M104 S200
M105
M109 S200
M82 ;absolute extrusion mode
; Ender 3 Custom Start G-code
G92 E0 ; Reset Extruder
G28 ; Home all axes
G1 Z2.0 F3000 ; Move Z Axis up little to prevent scratching of Heat Bed
G1 X0.1 Y20 Z0.3 F5000.0 ; Move to start position
G1 X0.1 Y200.0 Z0.3 F1500.0 E15 ; Draw the first line
G1 X0.4 Y200.0 Z0.3 F5000.0 ; Move to side a little
G1 X0.4 Y20 Z0.3 F1500.0 E30 ; Draw the second line
G92 E0 ; Reset Extruder
G1 Z2.0 F3000 ; Move Z Axis up little to prevent scratching of Heat Bed
G1 X5 Y20 Z0.3 F5000.0 ; Move over to prevent blob squish
G92 E0
G92 E0
G1 F2700 E-5
;LAYER_COUNT:114
;LAYER:0
M107
G0 F6000 X120.523 Y54.311 Z0.2
;TYPE:SKIRT
G1 F2700 E0
G1 F1200 X121.425 Y54.364 E0.03005
G1 X122.318 Y54.496 E0.06008
G1 X123.196 Y54.707 E0.09011
G1 X124.052 Y54.995 E0.12015
G1 X124.879 Y55.357 E0.15018
G1 X125.671 Y55.792 E0.18023
G1 X126.422 Y56.294 E0.21027
G1 X127.125 Y56.861 E0.24031
G1 X127.775 Y57.488 E0.27035
G1 X128.367 Y58.17 E0.30039
G1 X128.897 Y58.901 E0.33042
G1 X129.359 Y59.677 E0.36046
G1 X129.752 Y60.49 E0.39049
G1 X130.07 Y61.335 E0.42052
G1 X130.313 Y62.205 E0.45056
G1 X130.478 Y63.093 E0.4806
G1 X130.573 Y64.223 E0.51832
G1 X130.586 Y64.83 E0.53851
G1 X130.586 Y169.764 E4.02863
G1 X130.576 Y170.617 E4.05701
G1 X130.525 Y171.519 E4.08706
G1 X130.394 Y172.413 E4.11711
G1 X130.185 Y173.291 E4.14713
G1 X129.899 Y174.148 E4.17717
G1 X129.538 Y174.976 E4.20722
G1 X129.106 Y175.768 E4.23722
G1 X128.605 Y176.52 E4.26728
G1 X128.039 Y177.224 E4.29732
G1 X127.414 Y177.875 E4.32734
G1 X126.733 Y178.469 E4.35739
G1 X126.002 Y179 E4.38744
G1 X125.228 Y179.464 E4.41746
G1 X124.415 Y179.858 E4.44751
G1 X123.571 Y180.178 E4.47753
G1 X122.701 Y180.423 E4.50759
G1 X121.814 Y180.589 E4.5376
G1 X120.663 Y180.687 E4.57603
G1 X120.056 Y180.7 E4.59622
G1 X114.961 Y180.699 E4.76568
G1 X114.263 Y180.69 E4.7889
G1 X113.362 Y180.639 E4.81891
G1 X112.468 Y180.507 E4.84897
G1 X111.59 Y180.298 E4.87899
G1 X110.733 Y180.011 E4.90905
G1 X109.906 Y179.65 E4.93906
G1 X109.113 Y179.217 E4.96911
G1 X108.362 Y178.716 E4.99914
G1 X107.658 Y178.15 E5.02918
G1 X107.007 Y177.524 E5.05922
G1 X106.414 Y176.843 E5.08925
G1 X105.884 Y176.112 E5.11929
G1 X105.42 Y175.337 E5.14933
G1 X105.026 Y174.524 E5.17938
G1 X104.706 Y173.68 E5.2094
G1 X104.462 Y172.81 E5.23945
G1 X104.296 Y171.922 E5.2695
G1 X104.199 Y170.767 E5.30805
G1 X104.186 Y170.158 E5.32831
G1 X104.186 Y65.174 E8.82009
G1 X104.196 Y64.371 E8.8468
G1 X104.248 Y63.469 E8.87685
G1 X104.38 Y62.576 E8.90688
G1 X104.59 Y61.698 E8.9369
G1 X104.877 Y60.841 E8.96696
G1 X105.239 Y60.014 E8.99699
G1 X105.672 Y59.222 E9.02701
G1 X106.174 Y58.471 E9.05705
G1 X106.741 Y57.767 E9.08712
G1 X107.367 Y57.117 E9.11713
G1 X108.048 Y56.524 E9.14717
G1 X108.78 Y55.994 E9.17723
G1 X109.555 Y55.531 E9.20725
G1 X110.368 Y55.138 E9.23729
G1 X111.213 Y54.818 E9.26734
G1 X112.082 Y54.575 E9.29735
G1 X112.97 Y54.409 E9.3274
G1 X114.109 Y54.313 E9.36542
G1 X114.716 Y54.3 E9.38561
G1 X119.825 Y54.301 E9.55553
G1 X120.523 Y54.311 E9.57875
G0 F6000 X120.529 Y53.911
G1 F1200 X121.448 Y53.964 E9.60937
G1 X122.359 Y54.097 E9.63999
G1 X123.255 Y54.308 E9.67061
G1 X124.129 Y54.596 E9.70121
G1 X124.976 Y54.959 E9.73186
G1 X125.787 Y55.394 E9.76247
G1 X126.557 Y55.898 E9.79308
G1 X127.281 Y56.467 E9.82371
G1 X127.953 Y57.097 E9.85435
G1 X128.568 Y57.782 E9.88496
G1 X129.121 Y58.518 E9.91558
G1 X129.608 Y59.299 E9.9462
G1 X130.025 Y60.12 E9.97682
G1 X130.37 Y60.974 E10.00746
G1 X130.639 Y61.854 E10.03806
G1 X130.831 Y62.755 E10.0687
G1 X130.944 Y63.668 E10.0993
G1 X130.973 Y64.212 E10.11742
G1 X130.986 Y64.83 E10.13798
G1 X130.986 Y169.764 E13.6281
G1 X130.976 Y170.622 E13.65664
G1 X130.925 Y171.541 E13.68725
G1 X130.794 Y172.453 E13.7179
G1 X130.584 Y173.349 E13.7485
G1 X130.298 Y174.224 E13.77912
G1 X129.937 Y175.071 E13.80975
G1 X129.503 Y175.883 E13.84037
G1 X129.001 Y176.655 E13.871
G1 X128.433 Y177.38 E13.90163
G1 X127.805 Y178.053 E13.93224
G1 X127.121 Y178.669 E13.96286
G1 X126.386 Y179.223 E13.99347
G1 X125.606 Y179.712 E14.02409
G1 X124.786 Y180.131 E14.05472
G1 X123.933 Y180.477 E14.08534
G1 X123.053 Y180.748 E14.11596
G1 X122.153 Y180.941 E14.14658
G1 X121.239 Y181.056 E14.17722
G1 X120.674 Y181.087 E14.19604
G1 X120.056 Y181.1 E14.2166
G1 X114.956 Y181.099 E14.38622
G1 X114.258 Y181.09 E14.40944
G1 X113.339 Y181.038 E14.44005
G1 X112.428 Y180.907 E14.47067
G1 X111.532 Y180.697 E14.50127
G1 X110.657 Y180.41 E14.5319
G1 X109.81 Y180.048 E14.56254
G1 X108.998 Y179.614 E14.59316
G1 X108.227 Y179.112 E14.62376
G1 X107.502 Y178.544 E14.6544
G1 X106.829 Y177.915 E14.68503
G1 X106.214 Y177.231 E14.71563
G1 X105.66 Y176.496 E14.74624
G1 X105.172 Y175.715 E14.77687
G1 X104.753 Y174.895 E14.8075
G1 X104.407 Y174.042 E14.83811
G1 X104.137 Y173.162 E14.86873
G1 X103.944 Y172.261 E14.89938
G1 X103.83 Y171.348 E14.92998
G1 X103.799 Y170.777 E14.949
G1 X103.786 Y170.158 E14.96959
G1 X103.786 Y65.174 E18.46137
G1 X103.796 Y64.366 E18.48825
G1 X103.848 Y63.446 E18.5189
G1 X103.98 Y62.535 E18.54951
G1 X104.191 Y61.639 E18.58013
G1 X104.478 Y60.764 E18.61076
G1 X104.841 Y59.918 E18.64138
G1 X105.275 Y59.106 E18.672
G1 X105.778 Y58.335 E18.70262
G1 X106.347 Y57.611 E18.73325
G1 X106.975 Y56.939 E18.76384
G1 X107.66 Y56.323 E18.79448
G1 X108.396 Y55.77 E18.8251
G1 X109.177 Y55.282 E18.85573
G1 X109.997 Y54.864 E18.88634
G1 X110.851 Y54.519 E18.91697
G1 X111.731 Y54.249 E18.94759
G1 X112.631 Y54.057 E18.9782
G1 X113.545 Y53.943 E19.00883
G1 X114.098 Y53.913 E19.02725
G1 X114.716 Y53.9 E19.04781
G1 X119.831 Y53.901 E19.21794
G1 X120.529 Y53.911 E19.24115
G0 F6000 X120.535 Y53.511
G1 F1200 X121.471 Y53.565 E19.27234
G1 X122.399 Y53.697 E19.30351
G1 X123.313 Y53.909 E19.33472
G1 X124.205 Y54.198 E19.36591
G1 X125.07 Y54.561 E19.39711
G1 X125.9 Y54.997 E19.42829
G1 X126.691 Y55.502 E19.4595
G1 X127.435 Y56.073 E19.4907
G1 X128.128 Y56.705 E19.52189
G1 X128.765 Y57.393 E19.55308
G1 X129.34 Y58.134 E19.58427
G1 X129.851 Y58.92 E19.61545
G1 X130.293 Y59.748 E19.64667
G1 X130.662 Y60.61 E19.67786
G1 X130.957 Y61.5 E19.70904
G1 X131.175 Y62.412 E19.74023
G1 X131.315 Y63.34 E19.77145
G1 X131.373 Y64.201 E19.80015
G1 X131.386 Y64.83 E19.82107
G1 X131.386 Y169.764 E23.31119
G1 X131.376 Y170.627 E23.3399
G1 X131.325 Y171.564 E23.37111
G1 X131.193 Y172.492 E23.40228
G1 X130.984 Y173.406 E23.43347
G1 X130.697 Y174.299 E23.46467
G1 X130.335 Y175.165 E23.49589
G1 X129.901 Y175.996 E23.52707
G1 X129.397 Y176.787 E23.55826
G1 X128.828 Y177.532 E23.58944
G1 X128.197 Y178.227 E23.62066
G1 X127.51 Y178.865 E23.65185
G1 X126.771 Y179.442 E23.68303
G1 X125.985 Y179.954 E23.71423
G1 X125.159 Y180.397 E23.7454
G1 X124.297 Y180.769 E23.77663
G1 X123.408 Y181.065 E23.8078
G1 X122.496 Y181.285 E23.839
G1 X121.569 Y181.426 E23.87019
G1 X120.685 Y181.487 E23.89966
G1 X120.056 Y181.5 E23.92058
G1 X114.951 Y181.499 E24.09038
G1 X114.253 Y181.49 E24.11359
G1 X113.317 Y181.438 E24.14477
G1 X112.388 Y181.306 E24.17598
G1 X111.474 Y181.096 E24.20717
G1 X110.581 Y180.809 E24.23837
G1 X109.716 Y180.446 E24.26957
G1 X108.885 Y180.012 E24.30075
G1 X108.094 Y179.508 E24.33195
G1 X107.349 Y178.938 E24.36315
G1 X106.655 Y178.307 E24.39434
G1 X106.018 Y177.62 E24.42551
G1 X105.441 Y176.88 E24.45672
G1 X104.929 Y176.094 E24.48792
G1 X104.486 Y175.267 E24.51912
G1 X104.115 Y174.406 E24.5503
G1 X103.819 Y173.516 E24.5815
G1 X103.6 Y172.604 E24.61269
G1 X103.459 Y171.677 E24.64388
G1 X103.399 Y170.788 E24.67352
G1 X103.386 Y170.158 E24.69447
G1 X103.386 Y65.174 E28.18626
G1 X103.396 Y64.36 E28.21333
G1 X103.449 Y63.424 E28.24451
G1 X103.581 Y62.495 E28.27572
G1 X103.792 Y61.581 E28.30692
G1 X104.08 Y60.689 E28.3381
G1 X104.443 Y59.824 E28.3693
G1 X104.878 Y58.993 E28.40049
G1 X105.382 Y58.203 E28.43166
G1 X105.952 Y57.458 E28.46286
G1 X106.584 Y56.764 E28.49408
G1 X107.272 Y56.127 E28.52527
G1 X108.012 Y55.551 E28.55646
G1 X108.798 Y55.039 E28.58766
G1 X109.625 Y54.597 E28.61884
G1 X110.487 Y54.227 E28.65004
G1 X111.377 Y53.931 E28.68124
G1 X112.289 Y53.713 E28.71243
G1 X113.216 Y53.572 E28.74361
G1 X114.087 Y53.513 E28.77265
G1 X114.716 Y53.5 E28.79357
G1 X119.837 Y53.501 E28.9639
G1 X120.535 Y53.511 E28.98712
G1 F2700 E23.98712
;MESH:A1 - ver3.stl
G0 F6000 X119.966 Y63.835
G0 X119.966 Y64.92
G0 X119.786 Y169.9
;TYPE:WALL-INNER
G1 F2700 E28.98712
G1 F1200 X114.986 Y169.9 E29.14677
G1 X114.986 Y65.1 E32.63243
G1 X119.786 Y65.1 E32.79208
G1 X119.786 Y169.9 E36.27774
G0 F6000 X120.186 Y170.3
;TYPE:WALL-OUTER
G1 F1200 X114.586 Y170.3 E36.464
G1 X114.586 Y64.7 E39.97627
G1 X120.186 Y64.7 E40.16252
G1 X120.186 Y170.3 E43.67479
G0 F6000 X119.916 Y170.03
G0 X119.676 Y169.51
G0 X119.396 Y169.51
;TYPE:SKIN
G1 F1200 X115.376 Y169.51 E43.8085
G1 X115.376 Y65.49 E47.26822
G1 X119.396 Y65.49 E47.40192
G1 X119.396 Y169.51 E50.86164
G0 F6000 X119.676 Y169.51
G0 X119.612 Y169.697
G0 X115.609 Y169.79
G0 X115.609 Y169.349
G1 F1200 X115.534 Y169.274 E50.86517
G0 F6000 X115.534 Y168.709
G1 F1200 X116.174 Y169.349 E50.89528
G0 F6000 X116.74 Y169.349
G1 F1200 X115.534 Y168.143 E50.952
G0 F6000 X115.534 Y167.577
G1 F1200 X117.306 Y169.349 E51.03535
G0 F6000 X117.871 Y169.349
G1 F1200 X115.534 Y167.012 E51.14528
G0 F6000 X115.534 Y166.446
G1 F1200 X118.437 Y169.349 E51.28182
G0 F6000 X119.003 Y169.349
G1 F1200 X115.534 Y165.88 E51.445
G0 F6000 X115.534 Y165.315
G1 F1200 X119.236 Y169.016 E51.6191
G0 F6000 X119.236 Y168.451
G1 F1200 X115.534 Y164.749 E51.79323
G0 F6000 X115.534 Y164.183
G1 F1200 X119.236 Y167.885 E51.96736
G0 F6000 X119.236 Y167.319
G1 F1200 X115.534 Y163.618 E52.14147
G0 F6000 X115.534 Y163.052
G1 F1200 X119.236 Y166.754 E52.3156
G0 F6000 X119.236 Y166.188
G1 F1200 X115.534 Y162.486 E52.48973
G0 F6000 X115.534 Y161.921
G1 F1200 X119.236 Y165.622 E52.66384
G0 F6000 X119.236 Y165.057
G1 F1200 X115.534 Y161.355 E52.83797
G0 F6000 X115.534 Y160.789
G1 F1200 X119.236 Y164.491 E53.0121
G0 F6000 X119.236 Y163.925
G1 F1200 X115.534 Y160.224 E53.18621
G0 F6000 X115.534 Y159.658
G1 F1200 X119.236 Y163.36 E53.36034
G0 F6000 X119.236 Y162.794
G1 F1200 X115.534 Y159.092 E53.53447
G0 F6000 X115.534 Y158.526
G1 F1200 X119.236 Y162.228 E53.7086
G0 F6000 X119.236 Y161.662
G1 F1200 X115.534 Y157.961 E53.88271
G0 F6000 X115.534 Y157.395
G1 F1200 X119.236 Y161.097 E54.05684
G0 F6000 X119.236 Y160.531
G1 F1200 X115.534 Y156.829 E54.23097
G0 F6000 X115.534 Y156.264
G1 F1200 X119.236 Y159.965 E54.40508
G0 F6000 X119.236 Y159.4
G1 F1200 X115.534 Y155.698 E54.57921
G0 F6000 X115.534 Y155.132
G1 F1200 X119.236 Y158.834 E54.75334
G0 F6000 X119.236 Y158.268
G1 F1200 X115.534 Y154.567 E54.92745
G0 F6000 X115.534 Y154.001
G1 F1200 X119.236 Y157.703 E55.10158
G0 F6000 X119.236 Y157.137
G1 F1200 X115.534 Y153.435 E55.27571
G0 F6000 X115.534 Y152.87
G1 F1200 X119.236 Y156.571 E55.44981
G0 F6000 X119.236 Y156.006
G1 F1200 X115.534 Y152.304 E55.62395
G0 F6000 X115.534 Y151.738
G1 F1200 X119.236 Y155.44 E55.79808
G0 F6000 X119.236 Y154.874
G1 F1200 X115.534 Y151.173 E55.97218
G0 F6000 X115.534 Y150.607
G1 F1200 X119.236 Y154.309 E56.14631
G0 F6000 X119.236 Y153.743
G1 F1200 X115.534 Y150.041 E56.32044
G0 F6000 X115.534 Y149.476
G1 F1200 X119.236 Y153.177 E56.49455
G0 F6000 X119.236 Y152.612
G1 F1200 X115.534 Y148.91 E56.66868
G0 F6000 X115.534 Y148.344
G1 F1200 X119.236 Y152.046 E56.84281
G0 F6000 X119.236 Y151.48
G1 F1200 X115.534 Y147.778 E57.01694
G0 F6000 X115.534 Y147.213
G1 F1200 X119.236 Y150.914 E57.19105
G0 F6000 X119.236 Y150.349
G1 F1200 X115.534 Y146.647 E57.36518
G0 F6000 X115.534 Y146.081
G1 F1200 X119.236 Y149.783 E57.53931
G0 F6000 X119.236 Y149.217
G1 F1200 X115.534 Y145.516 E57.71342
G0 F6000 X115.534 Y144.95
G1 F1200 X119.236 Y148.652 E57.88755
G0 F6000 X119.236 Y148.086
G1 F1200 X115.534 Y144.384 E58.06168
G0 F6000 X115.534 Y143.819
G1 F1200 X119.236 Y147.52 E58.23579
G0 F6000 X119.236 Y146.955
G1 F1200 X115.534 Y143.253 E58.40992
G0 F6000 X115.534 Y142.687
G1 F1200 X119.236 Y146.389 E58.58405
G0 F6000 X119.236 Y145.823
G1 F1200 X115.534 Y142.122 E58.75816
G0 F6000 X115.534 Y141.556
G1 F1200 X119.236 Y145.258 E58.93229
G0 F6000 X119.236 Y144.692
G1 F1200 X115.534 Y140.99 E59.10642
G0 F6000 X115.534 Y140.425
G1 F1200 X119.236 Y144.126 E59.28053
G0 F6000 X119.236 Y143.561
G1 F1200 X115.534 Y139.859 E59.45466
G0 F6000 X115.534 Y139.293
G1 F1200 X119.236 Y142.995 E59.62879
G0 F6000 X119.236 Y142.429
G1 F1200 X115.534 Y138.727 E59.80292
G0 F6000 X115.534 Y138.162
G1 F1200 X119.236 Y141.864 E59.97705
G0 F6000 X119.236 Y141.298
G1 F1200 X115.534 Y137.596 E60.15118
G0 F6000 X115.534 Y137.03
G1 F1200 X119.236 Y140.732 E60.32531
G0 F6000 X119.236 Y140.166
G1 F1200 X115.534 Y136.465 E60.49942
G0 F6000 X115.534 Y135.899
G1 F1200 X119.236 Y139.601 E60.67355
G0 F6000 X119.236 Y139.035
G1 F1200 X115.534 Y135.333 E60.84768
G0 F6000 X115.534 Y134.768
G1 F1200 X119.236 Y138.469 E61.02179
G0 F6000 X119.236 Y137.904
G1 F1200 X115.534 Y134.202 E61.19592
G0 F6000 X115.534 Y133.636
G1 F1200 X119.236 Y137.338 E61.37005
G0 F6000 X119.236 Y136.772
G1 F1200 X115.534 Y133.071 E61.54415
G0 F6000 X115.534 Y132.505
G1 F1200 X119.236 Y136.207 E61.71829
G0 F6000 X119.236 Y135.641
G1 F1200 X115.534 Y131.939 E61.89242
G0 F6000 X115.534 Y131.374
G1 F1200 X119.236 Y135.075 E62.06652
G0 F6000 X119.236 Y134.51
G1 F1200 X115.534 Y130.808 E62.24065
G0 F6000 X115.534 Y130.242
G1 F1200 X119.236 Y133.944 E62.41478
G0 F6000 X119.236 Y133.378
G1 F1200 X115.534 Y129.677 E62.58889
G0 F6000 X115.534 Y129.111
G1 F1200 X119.236 Y132.813 E62.76302
G0 F6000 X119.236 Y132.247
G1 F1200 X115.534 Y128.545 E62.93715
G0 F6000 X115.534 Y127.979
G1 F1200 X119.236 Y131.681 E63.11128
G0 F6000 X119.236 Y131.115
G1 F1200 X115.534 Y127.414 E63.28539
G0 F6000 X115.534 Y126.848
G1 F1200 X119.236 Y130.55 E63.45952
G0 F6000 X119.236 Y129.984
G1 F1200 X115.534 Y126.282 E63.63365
G0 F6000 X115.534 Y125.717
G1 F1200 X119.236 Y129.418 E63.80776
G0 F6000 X119.236 Y128.853
G1 F1200 X115.534 Y125.151 E63.98189
G0 F6000 X115.534 Y124.585
G1 F1200 X119.236 Y128.287 E64.15602
G0 F6000 X119.236 Y127.721
G1 F1200 X115.534 Y124.02 E64.33013
G0 F6000 X115.534 Y123.454
G1 F1200 X119.236 Y127.156 E64.50426
G0 F6000 X119.236 Y126.59
G1 F1200 X115.534 Y122.888 E64.67839
G0 F6000 X115.534 Y122.323
G1 F1200 X119.236 Y126.024 E64.8525
G0 F6000 X119.236 Y125.459
G1 F1200 X115.534 Y121.757 E65.02663
G0 F6000 X115.534 Y121.191
G1 F1200 X119.236 Y124.893 E65.20076
G0 F6000 X119.236 Y124.327
G1 F1200 X115.534 Y120.626 E65.37487
G0 F6000 X115.534 Y120.06
G1 F1200 X119.236 Y123.762 E65.549
G0 F6000 X119.236 Y123.196
G1 F1200 X115.534 Y119.494 E65.72313
G0 F6000 X115.534 Y118.928
G1 F1200 X119.236 Y122.63 E65.89726
G0 F6000 X119.236 Y122.065
G1 F1200 X115.534 Y118.363 E66.07139
G0 F6000 X115.534 Y117.797
G1 F1200 X119.236 Y121.499 E66.24552
G0 F6000 X119.236 Y120.933
G1 F1200 X115.534 Y117.231 E66.41965
G0 F6000 X115.534 Y116.666
G1 F1200 X119.236 Y120.367 E66.59376
G0 F6000 X119.236 Y119.802
G1 F1200 X115.534 Y116.1 E66.76789
G0 F6000 X115.534 Y115.534
G1 F1200 X119.236 Y119.236 E66.94202
G0 F6000 X119.236 Y118.67
G1 F1200 X115.534 Y114.969 E67.11613
G0 F6000 X115.534 Y114.403
G1 F1200 X119.236 Y118.105 E67.29026
G0 F6000 X119.236 Y117.539
G1 F1200 X115.534 Y113.837 E67.46439
G0 F6000 X115.534 Y113.272
G1 F1200 X119.236 Y116.973 E67.6385
G0 F6000 X119.236 Y116.408
G1 F1200 X115.534 Y112.706 E67.81263
G0 F6000 X115.534 Y112.14
G1 F1200 X119.236 Y115.842 E67.98676
G0 F6000 X119.236 Y115.276
G1 F1200 X115.534 Y111.575 E68.16086
G0 F6000 X115.534 Y111.009
G1 F1200 X119.236 Y114.711 E68.33499
G0 F6000 X119.236 Y114.145
G1 F1200 X115.534 Y110.443 E68.50913
G0 F6000 X115.534 Y109.878
G1 F1200 X119.236 Y113.579 E68.68323
G0 F6000 X119.236 Y113.014
G1 F1200 X115.534 Y109.312 E68.85736
G0 F6000 X115.534 Y108.746
G1 F1200 X119.236 Y112.448 E69.03149
G0 F6000 X119.236 Y111.882
G1 F1200 X115.534 Y108.18 E69.20562
G0 F6000 X115.534 Y107.615
