;FLAVOR:Marlin
;TIME:5848
;Filament used: 3.99908m
;Layer height: 0.2
;MINX:92.643
;MINY:95.974
;MINZ:0.24
;MAXX:134.674
;MAXY:139.835
;MAXZ:53.49
;Generated with Cura_SteamEngine 4.6.1
M140 S50
M105
M190 S50
M104 S200
M105
M109 S200
M82 ;absolute extrusion mode
; Ender 3 Custom Start G-code
G92 E0 ; Reset Extruder
G28 ; Home all axes
G1 Z2.0 F3000 ; Move Z Axis up little to prevent scratching of Heat Bed
G1 X0.1 Y20 Z0.3 F5000.0 ; Move to start position
G1 X0.1 Y200.0 Z0.3 F1500.0 E15 ; Draw the first line
G1 X0.4 Y200.0 Z0.3 F5000.0 ; Move to side a little
G1 X0.4 Y20 Z0.3 F1500.0 E30 ; Draw the second line
G92 E0 ; Reset Extruder
G1 Z2.0 F3000 ; Move Z Axis up little to prevent scratching of Heat Bed
G1 X5 Y20 Z0.3 F5000.0 ; Move over to prevent blob squish
G92 E0
G92 E0
G1 F2700 E-5
;LAYER_COUNT:262
;LAYER:-6
M107
G0 F9000 X100.706 Y101.067 Z0.24
;TYPE:SUPPORT-INTERFACE
G1 F2700 E0
G1 F1125 X100.838 Y100.943 E0.01446
G1 X101.476 Y100.382 E0.08227
G1 X101.659 Y100.233 E0.10111
G1 X102.345 Y99.714 E0.16978
G1 X102.483 Y99.619 E0.18315
G1 X103.229 Y99.136 E0.25409
G1 X103.381 Y99.045 E0.26823
G1 X104.156 Y98.62 E0.33879
G1 X104.332 Y98.531 E0.35453
G1 X105.147 Y98.159 E0.42604
G1 X105.288 Y98.101 E0.43821
G1 X106.133 Y97.788 E0.51014
G1 X106.303 Y97.732 E0.52443
G1 X107.137 Y97.49 E0.59375
G1 X107.336 Y97.44 E0.61013
G1 X108.186 Y97.26 E0.67949
G1 X108.366 Y97.228 E0.69408
G1 X109.247 Y97.107 E0.76506
G1 X109.426 Y97.089 E0.77943
G1 X110.313 Y97.034 E0.85037
G1 X110.479 Y97.029 E0.86362
G1 X111.37 Y97.038 E0.93475
G1 X111.553 Y97.047 E0.94937
G1 X112.456 Y97.122 E1.0217
G1 X112.617 Y97.141 E1.03465
G1 X113.484 Y97.278 E1.10471
G1 X113.659 Y97.312 E1.11894
G1 X114.528 Y97.514 E1.19016
G1 X114.715 Y97.566 E1.20565
G1 X115.855 Y97.931 E1.3012
G1 X116.726 Y98.25 E1.37525
G1 X117.396 Y98.514 E1.43273
G1 X119.4 Y99.366 E1.60656
G1 X120.255 Y99.764 E1.68184
G1 X121.509 Y100.394 E1.79386
G1 X122.101 Y100.709 E1.84739
G1 X122.793 Y101.099 E1.9108
G1 X123.958 Y101.797 E2.0192
G1 X124.396 Y102.076 E2.06066
G1 X125.244 Y102.659 E2.1428
G1 X125.58 Y102.899 E2.17576
G1 X126.217 Y103.38 E2.23948
G1 X126.884 Y103.914 E2.30768
G1 X127.698 Y104.633 E2.39438
G1 X128.331 Y105.246 E2.46472
G1 X129.223 Y106.21 E2.56956
G1 X129.862 Y106.971 E2.64888
G1 X130.523 Y107.86 E2.73731
G1 X130.897 Y108.406 E2.79014
G1 X131.345 Y109.134 E2.85837
G1 X131.848 Y110.061 E2.94256
G1 X131.97 Y110.308 E2.96455
G1 X132.084 Y110.563 E2.98685
G1 X132.082 Y110.565 E2.98707
G1 X132.469 Y111.424 E3.06228
G1 X132.686 Y111.967 E3.10896
G1 X132.944 Y112.705 E3.17136
G1 X132.989 Y112.856 E3.18394
G1 X133.348 Y114.204 E3.2953
G1 X133.364 Y114.286 E3.30196
G1 X133.598 Y115.63 E3.41086
G1 X133.616 Y115.776 E3.4226
G1 X133.72 Y116.846 E3.50842
G1 X133.732 Y117.313 E3.54571
G1 X133.754 Y117.947 E3.59635
G1 X133.753 Y118.11 E3.60936
G1 X133.708 Y119.164 E3.69357
G1 X133.636 Y119.873 E3.75046
G1 X133.62 Y119.98 E3.75909
G1 X133.56 Y120.481 E3.79937
G1 X133.35 Y121.597 E3.89002
G1 X133.32 Y121.726 E3.90059
G1 X133.044 Y122.784 E3.98787
G1 X132.816 Y123.483 E4.04656
G1 X132.407 Y124.549 E4.1377
G1 X132.296 Y124.802 E4.15976
G1 X132.087 Y125.242 E4.19864
G1 X131.943 Y125.552 E4.22593
G1 X131.536 Y126.348 E4.29729
G1 X131.442 Y126.516 E4.31266
G1 X130.901 Y127.4 E4.39539
G1 X130.238 Y128.357 E4.48832
G1 X129.788 Y128.939 E4.54705
G1 X129.541 Y129.241 E4.57819
G1 X128.899 Y129.977 E4.65615
G1 X128.709 Y130.182 E4.67846
G1 X128.074 Y130.825 E4.7506
G1 X127.57 Y131.302 E4.80599
G1 X127.318 Y131.531 E4.83317
G1 X126.563 Y132.173 E4.91228
G1 X126.341 Y132.35 E4.93495
G1 X126.339 Y132.347 E4.93523
G1 X125.866 Y132.708 E4.98273
G1 X125.507 Y132.975 E5.01845
G1 X124.979 Y133.353 E5.07028
G1 X124.19 Y133.88 E5.14602
G1 X123.591 Y134.255 E5.20243
G1 X122.903 Y134.661 E5.2662
G1 X121.964 Y135.182 E5.35192
G1 X121.389 Y135.473 E5.40336
G1 X121.275 Y135.538 E5.41384
G1 X119.978 Y136.183 E5.52946
G1 X119.105 Y136.582 E5.60608
G1 X117.276 Y137.35 E5.76443
G1 X116.613 Y137.61 E5.82128
G1 X115.762 Y137.919 E5.89355
G1 X114.848 Y138.215 E5.97024
G1 X114.691 Y138.259 E5.98325
G1 X113.847 Y138.467 E6.05264
G1 X113.629 Y138.511 E6.07039
G1 X112.618 Y138.677 E6.15218
G1 X111.714 Y138.762 E6.22466
G1 X111.549 Y138.771 E6.23785
G1 X110.636 Y138.79 E6.31074
G1 X110.476 Y138.788 E6.32352
G1 X109.58 Y138.741 E6.39514
G1 X109.414 Y138.726 E6.40844
G1 X108.524 Y138.615 E6.48004
G1 X108.364 Y138.588 E6.49299
G1 X107.49 Y138.414 E6.56412
G1 X107.296 Y138.367 E6.58006
G1 X106.461 Y138.135 E6.64924
G1 X106.297 Y138.083 E6.66297
G1 X105.441 Y137.776 E6.73556
G1 X105.284 Y137.713 E6.74906
G1 X104.466 Y137.35 E6.8205
G1 X104.313 Y137.275 E6.8341
G1 X103.539 Y136.864 E6.90406
G1 X103.367 Y136.763 E6.91998
G1 X102.621 Y136.292 E6.9904
G1 X102.48 Y136.195 E7.00407
G1 X101.765 Y135.667 E7.07502
G1 X101.623 Y135.554 E7.0895
G1 X100.942 Y134.97 E7.16111
G1 X100.822 Y134.859 E7.17416
G1 X99.937 Y133.962 E7.27475
G1 X99.519 Y133.5 E7.32448
G1 X98.841 Y132.697 E7.40837
G1 X98.515 Y132.266 E7.45151
G1 X97.885 Y131.395 E7.53732
G1 X97.367 Y130.624 E7.61146
G1 X97.268 Y130.464 E7.62648
G1 X96.929 Y129.883 E7.68018
G1 X96.477 Y129.078 E7.75387
G1 X96.054 Y128.259 E7.82745
G1 X95.977 Y128.094 E7.84199
G1 X95.697 Y127.46 E7.89731
G1 X95.354 Y126.646 E7.96782
G1 X94.959 Y125.592 E8.05767
G1 X94.778 Y125.011 E8.10625
G1 X94.498 Y124.051 E8.18607
G1 X94.234 Y122.997 E8.27281
G1 X93.953 Y121.437 E8.39934
G1 X93.808 Y120.355 E8.48648
G1 X93.747 Y119.486 E8.55602
G1 X93.705 Y118.77 E8.61327
G1 X93.685 Y117.62 E8.70508
G1 X93.714 Y116.93 E8.76021
G1 X93.768 Y115.989 E8.83545
G1 X93.85 Y115.092 E8.90735
G1 X93.872 Y114.915 E8.92158
G1 X93.997 Y114.123 E8.98559
G1 X94.135 Y113.332 E9.04968
G1 X94.359 Y112.272 E9.13616
G1 X94.512 Y111.71 E9.18266
G1 X94.815 Y110.683 E9.26813
G1 X95.123 Y109.758 E9.34595
G1 X95.172 Y109.628 E9.35704
G1 X95.458 Y108.925 E9.41763
G1 X95.785 Y108.149 E9.48485
G1 X96.242 Y107.178 E9.57051
G1 X96.569 Y106.574 E9.62534
G1 X97.036 Y105.747 E9.70115
G1 X97.58 Y104.862 E9.78407
G1 X97.882 Y104.441 E9.82543
G1 X97.981 Y104.29 E9.83985
G1 X98.536 Y103.523 E9.91542
G1 X99.2 Y102.676 E10.00133
G1 X99.563 Y102.261 E10.04534
G1 X100.003 Y101.78 E10.09738
G1 X100.706 Y101.067 E10.1773
G0 F9000 X100.8 Y100.978
G1 F1125 X100.8 Y134.836 E12.88
G0 F9000 X102.4 Y136.135
G1 F1125 X102.4 Y99.676 E15.79031
G0 F9000 X104 Y98.705
G1 F1125 X104 Y137.108 E18.8558
G0 F9000 X105.6 Y137.833
G1 F1125 X105.6 Y97.985 E22.03664
G0 F9000 X107.2 Y97.474
G1 F1125 X107.2 Y138.34 E25.29875
G0 F9000 X108.8 Y138.649
G1 F1125 X108.8 Y97.168 E28.60994
G0 F9000 X110.4 Y97.031
G1 F1125 X110.4 Y138.784 E31.94284
G0 F9000 X112 Y138.736
G1 F1125 X112 Y97.085 E35.26761
G0 F9000 X113.6 Y97.301
G1 F1125 X113.6 Y138.516 E38.55757
G0 F9000 X115.2 Y138.102
G1 F1125 X115.2 Y97.722 E41.78087
G0 F9000 X116.8 Y98.28
G1 F1125 X116.8 Y137.537 E44.91454
G0 F9000 X118.4 Y136.879
G1 F1125 X118.4 Y98.941 E47.94291
G0 F9000 X120 Y99.646
G1 F1125 X120 Y136.173 E50.85865
G0 F9000 X121.6 Y135.367
G1 F1125 X121.6 Y100.443 E53.64644
G0 F9000 X123.2 Y101.343
G1 F1125 X123.2 Y134.486 E56.29206
G0 F9000 X124.8 Y133.473
G1 F1125 X124.8 Y102.354 E58.77611
G0 F9000 X126.4 Y103.527
G1 F1125 X126.4 Y132.303 E61.07313
G0 F9000 X128 Y130.896
G1 F1125 X128 Y104.926 E63.14617
G0 F9000 X129.6 Y106.659
G1 F1125 X129.6 Y129.169 E64.94302
G0 F9000 X131.2 Y126.912
G1 F1125 X131.2 Y108.899 E66.38089
G0 F9000 X132.8 Y112.294
G1 F1125 X132.8 Y123.525 E67.2774
G1 F2700 E62.2774
G0 F9000 X133.795 Y123.906
G0 X132.897 Y126.024
G0 X131.878 Y127.848
G0 X130.625 Y129.596
G0 X129.471 Y130.925
G0 X128.014 Y132.337
G0 X125.974 Y133.964
G0 X123.421 Y135.59
G0 X120.434 Y137.146
G0 X116.979 Y138.609
G0 X114.968 Y139.287
G0 X112.931 Y139.708
G0 X111.583 Y139.835
G0 X109.501 Y139.802
G0 X108.18 Y139.637
G0 X106.152 Y139.153
G0 X104.864 Y138.691
G0 X103.012 Y137.789
G0 X101.857 Y137.058
G0 X100.228 Y135.76
G0 X99.8 Y135.318
G0 X98.387 Y133.81
G0 X99.2 Y133.122
G1 F2700 E67.2774
G1 F1125 X99.2 Y102.676 E69.70773
G0 F9000 X97.6 Y104.834
G1 F1125 X97.6 Y130.97 E71.79402
G0 F9000 X96 Y128.143
G1 F1125 X96 Y107.692 E73.42651
G1 F2700 E68.42651
G0 F9000 X94.818 Y107.705
G0 X94.256 Y109.073
G0 X93.489 Y111.417
G0 X94.4 Y112.121
G1 F2700 E73.42651
G1 F1125 X94.4 Y123.659 E74.34752
G1 F2700 E69.34752
G0 F300 X94.4 Y123.659 Z0.54
G0 F9000 X93.47 Y124.325
G0 X94.01 Y126.105
G0 X95.098 Y128.724
G0 X96.47 Y131.196
G0 X97.749 Y132.99
G0 X98.706 Y134.187
G0 X99.518 Y133.499
;TIME_ELAPSED:59.508624
;LAYER:-5
M140 S50
;TYPE:SUPPORT
G1 F2700 E74.34752
G1 F1125 X99.936 Y133.961 E74.40969
G1 X100.822 Y134.857 E74.53542
G1 X100.941 Y134.969 E74.55172
G1 X101.544 Y135.485 E74.63091
G1 X99.305 Y133.246 E74.94686
G1 X98.841 Y132.696 E75.01866
G1 X98.514 Y132.265 E75.07264
G1 X97.884 Y131.394 E75.1799
G1 X97.366 Y130.623 E75.27258
G1 X97.267 Y130.463 E75.29136
G1 X96.929 Y129.882 E75.35843
G1 X96.476 Y129.077 E75.45059
G1 X96.397 Y128.924 E75.46778
G1 X105.105 Y137.632 E76.69657
G1 X105.283 Y137.711 E76.716
G1 X105.44 Y137.775 E76.73292
G1 X106.296 Y138.082 E76.82366
G1 X106.461 Y138.134 E76.84092
G1 X107.236 Y138.348 E76.92114
G1 X95.247 Y126.359 E78.61292
G1 X94.959 Y125.591 E78.69476
G1 X94.778 Y125.01 E78.75548
G1 X94.557 Y124.256 E78.83388
G1 X108.97 Y138.669 E80.86771
G1 X109.414 Y138.725 E80.91236
G1 X109.58 Y138.74 E80.929
G1 X110.476 Y138.787 E81.01852
G1 X110.503 Y138.787 E81.02122
G1 X94.128 Y122.412 E83.33191
G1 X93.952 Y121.436 E83.43086
G1 X93.857 Y120.727 E83.50224
G1 X111.875 Y138.745 E86.04477
G1 X112.618 Y138.676 E86.11923
G1 X113.134 Y138.59 E86.17143
G1 X93.729 Y119.184 E88.90975
G1 X93.705 Y118.769 E88.95123
G1 X93.686 Y117.728 E89.05512
G1 X114.31 Y138.351 E91.96532
G1 X114.69 Y138.258 E92.00435
G1 X114.848 Y138.213 E92.02074
G1 X115.405 Y138.032 E92.07918
G1 X93.745 Y116.372 E95.13564
G1 X93.768 Y115.988 E95.17403
G1 X93.85 Y115.091 E95.2639
G1 X93.852 Y115.066 E95.26641
G1 X116.453 Y137.666 E98.45558
G1 X116.612 Y137.609 E98.47243
G1 X117.275 Y137.349 E98.54349
G1 X117.468 Y137.267 E98.56442
G1 X94.045 Y113.844 E101.86966
G1 X94.135 Y113.331 E101.92163
G1 X94.276 Y112.661 E101.98994
G1 X118.465 Y136.849 E105.4032
G1 X119.105 Y136.581 E105.47243
G1 X119.452 Y136.422 E105.51052
G1 X94.563 Y111.534 E109.02255
G1 X94.815 Y110.682 E109.11121
G1 X94.892 Y110.448 E109.13579
G1 X120.41 Y135.966 E112.73665
G1 X121.275 Y135.537 E112.833
G1 X121.35 Y135.492 E112.84172
G1 X95.262 Y109.404 E116.52302
G1 X95.458 Y108.924 E116.57476
G1 X95.676 Y108.404 E116.63102
G1 X122.278 Y135.006 E120.38485
G1 X122.902 Y134.66 E120.45604
G1 X123.181 Y134.495 E120.48838
G1 X96.12 Y107.434 E124.30698
G1 X96.242 Y107.176 E124.33546
G1 X96.568 Y106.573 E124.40386
G1 X96.606 Y106.505 E124.41163
G1 X124.06 Y133.959 E128.28568
G1 X124.19 Y133.879 E128.30092
G1 X124.911 Y133.397 E128.38745
G1 X97.121 Y105.607 E132.30892
G1 X97.58 Y104.861 E132.39632
G1 X97.667 Y104.738 E132.41135
G1 X125.734 Y132.805 E136.37191
G1 X125.865 Y132.707 E136.38823
G1 X126.338 Y132.346 E136.4476
G0 F9000 X126.34 Y132.349
G1 F1125 X126.536 Y132.192 E136.47266
G1 X98.254 Y103.911 E140.46349
G1 X98.536 Y103.522 E140.51143
G1 X98.862 Y103.105 E140.56424
G1 X127.301 Y131.543 E144.57722
G1 X127.317 Y131.53 E144.57928
G1 X127.57 Y131.301 E144.61333
G1 X128.033 Y130.862 E144.67699
G1 X99.501 Y102.33 E148.70317
G1 X99.563 Y102.26 E148.7125
G1 X100.003 Y101.779 E148.77754
G1 X100.182 Y101.597 E148.80301
G1 X128.737 Y130.151 E152.83236
G1 X128.898 Y129.976 E152.85609
G1 X129.401 Y129.401 E152.93232
G1 X100.893 Y100.893 E156.9551
G1 X101.475 Y100.382 E157.03238
G1 X101.652 Y100.238 E157.05515
G1 X130.034 Y128.62 E161.06016
G1 X130.237 Y128.356 E161.09339
G1 X130.625 Y127.797 E161.16128
G1 X102.461 Y99.633 E165.13553
G1 X102.482 Y99.618 E165.1381
G1 X103.228 Y99.135 E165.22678
G1 X103.322 Y99.079 E165.2377
G1 X131.182 Y126.939 E169.16904
G1 X131.441 Y126.515 E169.21862
G1 X131.535 Y126.347 E169.23783
G1 X131.694 Y126.037 E169.27259
G1 X104.236 Y98.579 E173.14721
G1 X104.33 Y98.531 E173.15774
G1 X105.146 Y98.159 E173.24723
G1 X105.206 Y98.135 E173.25367
G1 X132.159 Y125.088 E177.05703
G1 X132.295 Y124.801 E177.08872
G1 X132.406 Y124.549 E177.1162
G1 X132.581 Y124.095 E177.16475
G1 X106.238 Y97.753 E180.88196
G1 X106.302 Y97.732 E180.88868
G1 X107.136 Y97.49 E180.97533
G1 X107.335 Y97.44 E180.9958
G0 F9000 X107.338 Y97.439
G1 F1125 X132.955 Y123.055 E184.61057
G1 X133.042 Y122.784 E184.63897
G1 X133.261 Y121.947 E184.7253
G1 X108.52 Y97.206 E188.21652
G1 X109.246 Y97.106 E188.28964
G1 X109.425 Y97.089 E188.30758
G1 X109.794 Y97.066 E188.34447
G1 X133.504 Y120.776 E191.69021
G1 X133.559 Y120.481 E191.72015
G1 X133.619 Y119.98 E191.7705
G1 X133.634 Y119.872 E191.78138
G1 X133.67 Y119.528 E191.81589
G1 X111.178 Y97.036 E194.98976
G1 X111.369 Y97.037 E195.00881
G1 X111.552 Y97.046 E195.0271
G1 X112.455 Y97.122 E195.11752
G1 X112.616 Y97.14 E195.13368
G1 X112.712 Y97.156 E195.14339
G1 X133.749 Y118.192 E198.11187
G1 X133.752 Y118.11 E198.12006
G1 X133.753 Y117.946 E198.13642
G1 X133.73 Y117.313 E198.19962
G1 X133.718 Y116.845 E198.24634
G1 X133.708 Y116.738 E198.25706
G1 X114.472 Y97.501 E200.97154
G1 X114.527 Y97.514 E200.97718
G1 X114.714 Y97.565 E200.99652
G1 X115.854 Y97.93 E201.11596
G1 X116.582 Y98.197 E201.19333
G1 X133.509 Y115.124 E203.58191
G1 X133.363 Y114.285 E203.66688
G1 X133.346 Y114.204 E203.67514
G1 X133.109 Y113.31 E203.76743
G1 X118.991 Y99.192 E205.75963
G1 X119.399 Y99.365 E205.80385
G1 X120.254 Y99.763 E205.89795
G1 X121.508 Y100.394 E206.03802
G1 X121.719 Y100.506 E206.06186
G1 X132.33 Y111.117 E207.55918
G1 X132.081 Y110.565 E207.61961
G0 F9000 X132.083 Y110.563
G1 F1125 X131.969 Y110.307 E207.64757
G1 X131.847 Y110.061 E207.67497
G1 X131.344 Y109.134 E207.7802
G1 X130.896 Y108.405 E207.86558
G1 X130.599 Y107.972 E207.91797
G1 X125.394 Y102.766 E208.65253
G1 X125.579 Y102.899 E208.67526
G1 X126.216 Y103.379 E208.75485
G1 X126.883 Y103.913 E208.8401
G1 X127.697 Y104.632 E208.94847
G1 X128.329 Y105.245 E209.03632
G1 X129.222 Y106.21 E209.16751
G1 X129.861 Y106.971 E209.26666
G1 X130.522 Y107.859 E209.37712
G1 F2700 E204.37712
G0 F300 X130.522 Y107.859 Z0.74
G0 F9000 X131.595 Y107.543
G0 X132.28 Y108.624
G0 X133.167 Y110.351
G0 X133.929 Y112.298
G0 X133.182 Y112.8
;TIME_ELAPSED:133.588099
;LAYER:-4
;TYPE:SUPPORT-INTERFACE
G1 F2700 E209.37712
G1 F1500 X94.043 Y112.8 E210.67889
G1 X94.128 Y112.4 E210.69249
G1 X133.049 Y112.4 E211.98701
G1 X132.91 Y112 E212.00109
G1 X94.226 Y112 E213.28773
G1 X94.32 Y111.653 E213.29969
G1 X94.336 Y111.6 E213.30153
G1 X132.755 Y111.6 E214.57935
G1 X132.654 Y111.348 E214.58838
G1 X132.588 Y111.2 E214.59377
G1 X94.454 Y111.2 E215.86211
G1 X94.572 Y110.8 E215.87598
G1 X132.41 Y110.8 E217.13448
G1 X132.232 Y110.4 E217.14904
G1 X94.699 Y110.4 E218.39739
G1 X94.832 Y110 E218.41141
G1 X132.042 Y110 E219.64902
G1 X132.021 Y109.958 E219.65058
G1 X131.827 Y109.6 E219.66413
G1 X94.97 Y109.6 E220.89
G1 X94.987 Y109.554 E220.89163
G1 X95.13 Y109.2 E220.90432
G1 X131.609 Y109.2 E222.11762
G1 X131.51 Y109.018 E222.12451
G1 X131.376 Y108.8 E222.13302
G1 X95.294 Y108.8 E223.33312
G1 X95.463 Y108.4 E223.34756
G1 X131.129 Y108.4 E224.53381
G1 X131.066 Y108.299 E224.53777
G1 X130.862 Y108 E224.54981
G1 X95.635 Y108 E225.72147
G1 X95.82 Y107.6 E225.73613
G1 X130.58 Y107.6 E226.89225
G1 X130.283 Y107.2 E226.90882
G1 X96.007 Y107.2 E228.04884
G1 X96.066 Y107.082 E228.05323
G1 X96.219 Y106.8 E228.0639
G1 X129.98 Y106.8 E229.1868
G1 X129.644 Y106.4 E229.20417
G1 X96.437 Y106.4 E230.30864
G1 X96.663 Y106 E230.32392
G1 X129.307 Y106 E231.40967
G1 X129.244 Y105.926 E231.4129
G1 X128.939 Y105.6 E231.42775
G1 X96.892 Y105.6 E232.49363
G1 X97.135 Y105.2 E232.5092
G1 X128.564 Y105.2 E233.55453
G1 X128.479 Y105.11 E233.55865
G1 X128.16 Y104.8 E233.57345
G1 X97.383 Y104.8 E234.59709
G1 X97.418 Y104.746 E234.59923
G1 X97.666 Y104.4 E234.61339
G1 X127.742 Y104.4 E235.61372
G1 X127.608 Y104.277 E235.61977
G1 X127.29 Y104 E235.6338
G1 X97.944 Y104 E236.60985
G1 X98.234 Y103.6 E236.62628
G1 X126.817 Y103.6 E237.57696
